X:1
T:Calling to Thee
T:Calling to Thee
T:Hubert Platt Main
T:Frances Jane (Fanny) Crosby, 1891
T:Public Domain Courtesy of the Cyber Hymnal™
C:Hubert Platt Main
Z:Public Domain
Z:Courtesy of the Cyber Hymnal™
%%score 1 ( 2 3 )
L:1/8
Q:1/4=80
M:6/8
K:C
V:1 treble 
V:2 bass 
V:3 bass 
V:1
 [EG][FA][EG] [CE] [EG]2 | [Gc][GB][FA] [FA] [EG]2 | [DG][B,D][CE] [DF][EG][FA] | %3
w: 1.~Out on the mount- ain,|sad and for- sak- en,|Lost in its maz- es, no|
w: 2.~Far on the mount- ain,|why wilt thou wan- der?|Deep- er in dark- ness thy|
w: 3.~Flee from thy bond- age,|Je- sus will help thee,|On- ly be- lieve Him, and|
 [FA][EG][DF] [CE]3 | [EG][FA][EG] [CE] [EG]2 | [Gc][Gd][Gc] [GB] [FA]2 | %6
w: light canst thou see;|Yet in His mer- cy,|full of com- pas- sion,|
w: path- way will be;|Turn from thy roam- ing,|fly from its dan- gers,|
w: thou shalt be free;|Won- der- ful mer- cy,|bound- less com- pas- sion,|
 [Dc][DB][^DA] [EG]!fermata![Ec][EG] | [FG]!fermata![Fd][FB] [Ec]3 || %8
w: Lo! the Good Shep- herd is|call- ing to thee.|
w: While the Good Shep- herd is|call- ing to thee.|
w: Still the Good Shep- herd is|call- ing to thee.|
"^Refrain" [CE][CG][Ec] [Ge]3 | [Ad][Ac][FA] [EG]3 | [CE][CE][CE] [CE] [EG]2 | %11
w: |||
w: Call- ing to thee,|call- ing to thee;|Je- sus is call- ing,|
w: |||
 [FA][EG][CE] [B,D]3 | [CE][CG][Ec] [Ge]3 | [Ad][Ac][FA] [EG]3 | [FA][FA][FA] [EG] [Ec]2 | %15
w: ||||
w: “Come un- to Me”;|Call- ing to thee,|call- ing to thee,|Hear the Good Shep- herd|
w: ||||
 [Fd][FA][FB] [Ec]3 |] %16
w: |
w: call- ing to thee.|
w: |
V:2
 [C,C][C,C][C,C] [C,G,] [C,C]2 | [E,C][E,C][F,C] [C,C] [C,C]2 | %2
 [G,,B,][G,,G,][G,,G,] [G,,G,][G,,G,][F,,B,] | [G,,C][A,,C][B,,G,] [C,G,]3 | %4
 [C,C][C,C][C,C] [C,G,] [C,C]2 | [E,C][E,C][E,C] [F,C] [F,C]2 | %6
 [^F,A,][F,B,][F,C] [G,C]!fermata!G,[G,C] | [G,,B,]!fermata![G,,B,][G,,D] [C,C]3 || %8
 [C,G,][C,E,][C,G,] [C,C]3 | [F,C][F,C][F,C] [C,C]3 | [C,G,][C,G,][C,G,] [C,G,] [C,C]2 | %11
 [C,C][C,C][C,G,] [G,,G,]3 | [C,G,][C,E,][C,G,] [C,C]3 | [F,C][F,C][F,C] [C,C]3 | %14
 [F,C][F,C][F,C] [C,C] [C,G,]2 | [G,,B,][G,,D][G,,G,] [C,G,]3 |] %16
V:3
 x6 | x6 | x6 | x6 | x6 | x6 | x4 G, x | x6 || x6 | x6 | x6 | x6 | x6 | x6 | x6 | x6 |] %16

